@extra/phlat-icons/symbolic-24/natron.svg

<?xml version="1.0" encoding="UTF-8" standalone="no"?>
<svg
   xmlns:dc="http://purl.org/dc/elements/1.1/"
   xmlns:cc="http://creativecommons.org/ns#"
   xmlns:rdf="http://www.w3.org/1999/02/22-rdf-syntax-ns#"
   xmlns:svg="http://www.w3.org/2000/svg"
   xmlns="http://www.w3.org/2000/svg"
   xmlns:xlink="http://www.w3.org/1999/xlink"
   id="svg26"
   version="1.1"
	 viewBox="-4 -4 24 24"

   width="16"
   height="16"
   viewBox="0 0 4.2333333 4.2333333">
  <metadata
     id="metadata30">
    <rdf:RDF>
      <cc:Work
         rdf:about="">
        <dc:format>image/svg+xml</dc:format>
        <dc:type
           rdf:resource="http://purl.org/dc/dcmitype/StillImage" />
        <dc:title></dc:title>
      </cc:Work>
    </rdf:RDF>
  </metadata>
  <defs
     id="defs14">
    <linearGradient
       id="linearGradient4525">
      <stop
         id="stop4521"
         offset="0"
         style="stop-color:#ffffff;stop-opacity:1;" />
      <stop
         id="stop4523"
         offset="1"
         style="stop-color:#ffffff;stop-opacity:0;" />
    </linearGradient>
    <linearGradient
       id="b">
      <stop
         id="stop2"
         stop-color="#6795d5"
         offset="0" />
      <stop
         id="stop4"
         stop-color="#3b79cb"
         offset="1" />
    </linearGradient>
    <linearGradient
       id="a">
      <stop
         id="stop7"
         stop-color="#fff"
         offset="0" />
      <stop
         id="stop9"
         stop-opacity="0"
         stop-color="#fff"
         offset="1" />
    </linearGradient>
    <linearGradient
       gradientTransform="scale(0.26458)"
       xlink:href="#a"
       id="d"
       x1="46.115002"
       y1="2.26"
       x2="46.122002"
       y2="46.213001"
       gradientUnits="userSpaceOnUse" />
    <linearGradient
       gradientTransform="matrix(0.17255435,0,0,0.17255435,0.09202565,0.09041156)"
       xlink:href="#b"
       id="c"
       x1="43"
       y1="1"
       x2="43"
       y2="47"
       gradientUnits="userSpaceOnUse" />
    <linearGradient
       gradientUnits="userSpaceOnUse"
       y2="7.929287"
       x2="7.9296856"
       y1="0.55254155"
       x1="7.9309158"
       id="linearGradient4529"
       xlink:href="#linearGradient4525" />
  </defs>
  <path
     style="fill:#f1f2f2;stroke-width:0.16853446;stroke-linecap:square;paint-order:markers stroke fill"
     d="M 2.0167716,2.4912763e-5 C 1.8074082,0.00388891 1.6027597,0.02060301 1.4318301,0.04890031 1.2605784,0.07725091 1.1218914,0.12223631 1.0622181,0.15886981 0.997808,0.19841291 0.87931586,0.31933491 0.76031286,0.48100321 0.64130986,0.64267131 0.51464116,0.84539001 0.40069039,1.0552888 0.28673966,1.2651877 0.18438162,1.4821272 0.11210449,1.672896 0.03982736,1.8636648 -4.5e-8,2.0329888 -4.5e-8,2.1172177 c 0,0.1423616 0.150262205,0.5402491 0.358512525,0.9164134 0.13710188,0.2476483 0.28869251,0.4756807 0.43523751,0.6705355 0.00569,-0.1707203 0.004617,-0.3762496 0.0142907,-0.5439039 0.00893,-0.1548409 0.018949,-0.3494213 0.029968,-0.4582865 0.00551,-0.054433 0.011333,-0.099874 0.017759,-0.1377397 0.00321,-0.018933 0.00638,-0.035997 0.011099,-0.053318 0.00466,-0.017104 0.00244,-0.031643 0.034408,-0.071091 0.037408,-0.045697 0.10141191,-0.065259 0.14651291,-0.062205 3.694e-4,-1.4e-6 7.387e-4,-1.4e-6 0.00111,0 0.1003005,0.00698 0.1279203,0.057708 0.1609423,0.097751 0.033022,0.040044 0.062156,0.086948 0.094345,0.1421829 0.064378,0.1104684 0.1358215,0.2530853 0.2097798,0.4065543 0.1479166,0.3069381 0.3120065,0.7138064 0.4239994,0.8837246 0.084105,0.1274983 0.136676,0.2256743 0.1753714,0.2732578 0.038696,0.047584 0.038564,0.052724 0.1043349,0.052208 0.2094798,-0.00386 0.414288,-0.020844 0.5849414,-0.048875 C 2.9735882,4.1563401 3.1115106,4.1121568 3.1711152,4.0755654 3.2355249,4.0360226 3.3540175,3.9151003 3.4730205,3.7534322 3.5920235,3.5917641 3.7186922,3.3890453 3.8326429,3.1791465 3.9465936,2.9692475 4.0489517,2.7523082 4.1212288,2.5615394 4.193506,2.3707705 4.2333333,2.2014465 4.2333333,2.1172177 4.2333333,1.974735 4.0839012,1.5777924 3.8759308,1.201915 3.7390132,0.95445559 3.5860204,0.72391086 3.4395833,0.52916666 c -0.00569,0.1703591 -0.00352,0.43076204 -0.013181,0.59794634 -0.00893,0.1545664 -0.018947,0.295669 -0.029968,0.4043328 -0.00551,0.054332 -0.01133,0.099927 -0.017759,0.1377397 -0.00322,0.018907 -0.00637,0.036009 -0.011099,0.053318 -0.00472,0.017309 -0.0012,0.031686 -0.034408,0.072202 -0.037173,0.044857 -0.1007191,0.064196 -0.1465128,0.061094 -3.694e-4,1.4e-6 -7.388e-4,1.4e-6 -0.00111,0 C 3.0852441,1.848829 3.0576242,1.7980935 3.0246024,1.7580498 2.9915805,1.7180061 2.9624462,1.6711011 2.930257,1.6158669 2.8658786,1.5053984 2.7944355,1.3627816 2.7204772,1.2093125 2.5725606,0.9023745 2.4084707,0.49540891 2.2964779,0.32549051 2.2123579,0.19802221 2.1598113,0.09984531 2.1211065,0.05223261 2.0827315,0.00502531 2.0819475,-4.3628724e-4 2.0178815,2.4912763e-5 Z"
     id="path18" />
</svg>

<svg xmlns="http://www.w3.org/2000/svg" viewBox="0 0 4.2333333 4.2333333">
    <path d="M2.017 0c-.21.004-.414.02-.585.049-.171.028-.31.073-.37.11C.998.199.88.319.76.48a5.118 5.118 0 0 0-.36.574c-.113.21-.216.427-.288.618A1.54 1.54 0 0 0 0 2.116c0 .143.15.54.359.917.137.247.288.475.435.67.005-.17.004-.376.014-.544.009-.155.019-.35.03-.458a2.108 2.108 0 0 1 .029-.191c.005-.017.002-.032.034-.071a.185.185 0 0 1 .148-.062c.1.007.128.057.16.097.034.04.063.087.095.143.065.11.136.253.21.406.148.307.312.714.424.884.084.127.137.226.175.273.039.048.039.053.105.052a4.2 4.2 0 0 0 .585-.049c.17-.028.309-.072.368-.108.065-.04.183-.16.302-.323.119-.161.246-.364.36-.574.114-.21.216-.427.288-.617a1.51 1.51 0 0 0 .112-.445c0-.142-.15-.54-.357-.915A5.844 5.844 0 0 0 3.44.529c-.006.17-.004.43-.014.598a9.932 9.932 0 0 1-.03.404 2.11 2.11 0 0 1-.028.192c-.005.017-.002.031-.035.072a.185.185 0 0 1-.147.06c-.1-.006-.128-.057-.161-.097a1.066 1.066 0 0 1-.095-.142 6.198 6.198 0 0 1-.21-.407C2.573.902 2.408.495 2.296.325 2.212.198 2.16.1 2.121.052 2.083.005 2.081 0 2.018 0z" fill="#f1f2f2" paint-order="markers stroke fill"/>
</svg>
